images/icons/dark/crowd.svg

<svg height="128" viewBox="0 0 123 128" width="123" xmlns="http://www.w3.org/2000/svg" xmlns:xlink="http://www.w3.org/1999/xlink"><defs><path id="a" d="m66.4363636 59.3170732c6.8683947 0 12.459673 5.6039024 12.459673 12.4878048 0 6.8839025-5.5912783 12.4878049-12.459673 12.4878049s-12.4596729-5.6039024-12.4596729-12.4878049c0-6.8839024 5.5912782-12.4878048 12.4596729-12.4878048m-18.6895094 12.4878048c0-10.3336585 8.3791301-18.7317073 18.6895094-18.7317073 10.3103794 0 18.6895094 8.3980488 18.6895094 18.7317073 0 10.3336586-8.37913 18.7317074-18.6895094 18.7317074-10.3103793 0-18.6895094-8.3980488-18.6895094-18.7317074zm50.4157304 46.376585c.8083213 1.93561 1.4172878 3.964878 1.8518184 6.072196l.763155 3.746341h-68.6823892l.763155-3.746341c.4345311-2.107318 1.0434976-4.136586 1.8518189-6.072196h-31.27377906l.76471242-3.730731c2.38291245-11.785366 12.83346314-20.3395125 24.85549004-20.3395125 7.2889087 0 14.0031149 3.1531707 18.6895094 8.2575605 5.4215152-3.5590239 11.8693959-5.5882922 18.6895094-5.5882922 6.8216709 0 13.2695517 2.0292683 18.6895094 5.5882922 4.6879519-5.1043898 11.4021582-8.2575605 18.6895097-8.2575605 12.023584 0 22.474135 8.5541465 24.857047 20.3395125l.764713 3.730731zm-58.1726555 3.574635h52.8928691c-.4360886-1.233171-.9500501-2.435122-1.5574591-3.574635-1.1852264-2.294634-2.6803872-4.386341-4.4076093-6.243902-.1417288-.156098-.2974747-.312195-.4516632-.468293-1.4951607-1.529756-3.161642-2.872195-4.969852-4.027317-4.3920347-2.809756-9.5783736-4.417561-15.0606297-4.417561-5.4806986 0-10.6670375 1.607805-15.0590722 4.417561-1.80821 1.155122-3.4746913 2.497561-4.969852 4.027317-.1541885.156098-.3099344.312195-.4516632.468293-1.7272221 1.857561-3.2223829 3.949268-4.4076093 6.243902-.607409 1.139513-1.1213705 2.341464-1.5574591 3.574635zm-28.5170764-9.818537h26.5546779c1.4032707-2.076098 3.0230282-3.996098 4.8296807-5.697561-3.521415-3.652683-8.4585604-5.884878-13.8006452-5.884878-7.7390143 0-14.607409 4.682927-17.5837134 11.582439zm92.3417513-11.582439c-5.3405276 0-10.277673 2.232195-13.7990881 5.884878 1.8066526 1.701463 3.4264101 3.621463 4.8296808 5.697561h26.5546783c-2.976305-6.899512-9.844699-11.582439-17.585271-11.582439zm-14.0163536-23.8673171c0-7.742439 6.2921348-14.0487805 14.0171316-14.0487805 7.724998 0 14.017132 6.3063415 14.017132 14.0487805s-6.292134 14.0487805-14.017132 14.0487805c-7.7249968 0-14.0171316-6.3063415-14.0171316-14.0487805zm21.8044276 0c0-4.3082927-3.488708-7.8048781-7.787296-7.8048781-4.2985867 0-7.7872951 3.4965854-7.7872951 7.8048781s3.4887084 7.804878 7.7872951 7.804878c4.298588 0 7.787296-3.4965853 7.787296-7.804878zm-82.5453332 14.0487805c-7.7249972 0-14.017132-6.3063415-14.017132-14.0487805s6.2921348-14.0487805 14.017132-14.0487805c7.7249973 0 14.0171321 6.3063415 14.0171321 14.0487805s-6.2921348 14.0487805-14.0171321 14.0487805zm0-21.8536586c-4.2985871 0-7.7872955 3.4965854-7.7872955 7.8048781s3.4887084 7.804878 7.7872955 7.804878c4.2985872 0 7.7872956-3.4965853 7.7872956-7.804878s-3.4887084-7.8048781-7.7872956-7.8048781zm2.4452108-11.1921951v-14.0019512h-4.0026699v-24.3043903h34.2641006v24.3043903h-16.2910224zm2.2271666-32.062439v11.8165853h4.0026699v5.1668293l5.1707643-5.1668293h12.6309934v-11.8165853zm46.7237735 25.8185366v-16.9053659h-6.2298365v-34.3414634h49.8386918v34.3414634h-26.7415731zm0-45.00292686v21.85365856h6.2298365v8.0702439l8.0520636-8.0702439h23.0971182v-21.85365856zm9.3447547 14.04878046c-1.7194349 0-3.1149182-1.3986341-3.1149182-3.1219512s1.3954833-3.1219512 3.1149182-3.1219512 3.1149182 1.3986341 3.1149182 3.1219512-1.3954833 3.1219512-3.1149182 3.1219512zm9.3447547 0c-1.7194349 0-3.1149182-1.3986341-3.1149182-3.1219512s1.3954833-3.1219512 3.1149182-3.1219512 3.1149179 1.3986341 3.1149179 3.1219512-1.395483 3.1219512-3.1149179 3.1219512zm9.3447549 0c-1.719435 0-3.114918-1.3986341-3.114918-3.1219512s1.395483-3.1219512 3.114918-3.1219512 3.114918 1.3986341 3.114918 3.1219512-1.395483 3.1219512-3.114918 3.1219512z"/><filter id="b" height="101.6%" width="101.6%" x="-.8%" y="-.8%"><feOffset dx="2" dy="0" in="SourceAlpha" result="shadowOffsetInner1"/><feComposite in="shadowOffsetInner1" in2="SourceAlpha" k2="-1" k3="1" operator="arithmetic" result="shadowInnerInner1"/><feColorMatrix in="shadowInnerInner1" type="matrix" values="0 0 0 0 1   0 0 0 0 0.152941176   0 0 0 0 0.321568627  0 0 0 0.5 0"/></filter></defs><g fill="none" fill-rule="evenodd"><path d="m-196-2560h1280v4865h-1280z" fill="#fff"/><g fill="#000" transform="translate(-3)"><use fill-rule="evenodd" xlink:href="#a"/><use filter="url(#b)" xlink:href="#a"/></g></g></svg>

<?xml version="1.0" encoding="UTF-8"?>
<svg width="123px" height="128px" viewBox="0 0 123 128" version="1.1" xmlns="http://www.w3.org/2000/svg" xmlns:xlink="http://www.w3.org/1999/xlink">
    <!-- Generator: Sketch 51 (57462) - http://www.bohemiancoding.com/sketch -->
    <title>Combined Shape</title>
    <desc>Created with Sketch.</desc>
    <defs>
        <path d="M66.4363636,59.3170732 C73.3047583,59.3170732 78.8960366,64.9209756 78.8960366,71.804878 C78.8960366,78.6887805 73.3047583,84.2926829 66.4363636,84.2926829 C59.5679689,84.2926829 53.9766907,78.6887805 53.9766907,71.804878 C53.9766907,64.9209756 59.5679689,59.3170732 66.4363636,59.3170732 M47.7468542,71.804878 C47.7468542,61.4712195 56.1259843,53.0731707 66.4363636,53.0731707 C76.746743,53.0731707 85.125873,61.4712195 85.125873,71.804878 C85.125873,82.1385366 76.746743,90.5365854 66.4363636,90.5365854 C56.1259843,90.5365854 47.7468542,82.1385366 47.7468542,71.804878 Z M98.1625846,118.181463 C98.9709059,120.117073 99.5798724,122.146341 100.014403,124.253659 L100.777558,128 L32.0951688,128 L32.8583238,124.253659 C33.2928549,122.146341 33.9018214,120.117073 34.7101427,118.181463 L3.43636364,118.181463 L4.20107606,114.450732 C6.58398851,102.665366 17.0345392,94.1112195 29.0565661,94.1112195 C36.3454748,94.1112195 43.059681,97.2643902 47.7460755,102.36878 C53.1675907,98.8097561 59.6154714,96.7804878 66.4355849,96.7804878 C73.2572558,96.7804878 79.7051366,98.8097561 85.1250943,102.36878 C89.8130462,97.2643902 96.5272525,94.1112195 103.814604,94.1112195 C115.838188,94.1112195 126.288739,102.665366 128.671651,114.450732 L129.436364,118.181463 L98.1625846,118.181463 Z M39.9899291,121.756098 L92.8827982,121.756098 C92.4467096,120.522927 91.9327481,119.320976 91.3253391,118.181463 C90.1401127,115.886829 88.6449519,113.795122 86.9177298,111.937561 C86.776001,111.781463 86.6202551,111.625366 86.4660666,111.469268 C84.9709059,109.939512 83.3044246,108.597073 81.4962146,107.441951 C77.1041799,104.632195 71.917841,103.02439 66.4355849,103.02439 C60.9548863,103.02439 55.7685474,104.632195 51.3765127,107.441951 C49.5683027,108.597073 47.9018214,109.939512 46.4066607,111.469268 C46.2524722,111.625366 46.0967263,111.781463 45.9549975,111.937561 C44.2277754,113.795122 42.7326146,115.886829 41.5473882,118.181463 C40.9399792,119.320976 40.4260177,120.522927 39.9899291,121.756098 Z M11.4728527,111.937561 L38.0275306,111.937561 C39.4308013,109.861463 41.0505588,107.941463 42.8572113,106.24 C39.3357963,102.587317 34.3986509,100.355122 29.0565661,100.355122 C21.3175518,100.355122 14.4491571,105.038049 11.4728527,111.937561 Z M103.814604,100.355122 C98.4740764,100.355122 93.536931,102.587317 90.0155159,106.24 C91.8221685,107.941463 93.441926,109.861463 94.8451967,111.937561 L121.399875,111.937561 C118.42357,105.038049 111.555176,100.355122 103.814604,100.355122 Z M89.7982504,76.4878049 C89.7982504,68.7453659 96.0903852,62.4390244 103.815382,62.4390244 C111.54038,62.4390244 117.832514,68.7453659 117.832514,76.4878049 C117.832514,84.2302439 111.54038,90.5365854 103.815382,90.5365854 C96.0903852,90.5365854 89.7982504,84.2302439 89.7982504,76.4878049 Z M111.602678,76.4878049 C111.602678,72.1795122 108.11397,68.6829268 103.815382,68.6829268 C99.5167953,68.6829268 96.0280869,72.1795122 96.0280869,76.4878049 C96.0280869,80.7960976 99.5167953,84.2926829 103.815382,84.2926829 C108.11397,84.2926829 111.602678,80.7960976 111.602678,76.4878049 Z M29.0573448,90.5365854 C21.3323476,90.5365854 15.0402128,84.2302439 15.0402128,76.4878049 C15.0402128,68.7453659 21.3323476,62.4390244 29.0573448,62.4390244 C36.7823421,62.4390244 43.0744769,68.7453659 43.0744769,76.4878049 C43.0744769,84.2302439 36.7823421,90.5365854 29.0573448,90.5365854 Z M29.0573448,68.6829268 C24.7587577,68.6829268 21.2700493,72.1795122 21.2700493,76.4878049 C21.2700493,80.7960976 24.7587577,84.2926829 29.0573448,84.2926829 C33.355932,84.2926829 36.8446404,80.7960976 36.8446404,76.4878049 C36.8446404,72.1795122 33.355932,68.6829268 29.0573448,68.6829268 Z M31.5025556,57.4907317 L31.5025556,43.4887805 L27.4998857,43.4887805 L27.4998857,19.1843902 L61.7639863,19.1843902 L61.7639863,43.4887805 L45.4729639,43.4887805 L31.5025556,57.4907317 Z M33.7297222,25.4282927 L33.7297222,37.244878 L37.7323921,37.244878 L37.7323921,42.4117073 L42.9031564,37.244878 L55.5341498,37.244878 L55.5341498,25.4282927 L33.7297222,25.4282927 Z M80.4534957,51.2468293 L80.4534957,34.3414634 L74.2236592,34.3414634 L74.2236592,0 L124.062351,0 L124.062351,34.3414634 L97.3207779,34.3414634 L80.4534957,51.2468293 Z M80.4534957,6.24390244 L80.4534957,28.097561 L86.6833322,28.097561 L86.6833322,36.1678049 L94.7353958,28.097561 L117.832514,28.097561 L117.832514,6.24390244 L80.4534957,6.24390244 Z M89.7982504,20.2926829 C88.0788155,20.2926829 86.6833322,18.8940488 86.6833322,17.1707317 C86.6833322,15.4474146 88.0788155,14.0487805 89.7982504,14.0487805 C91.5176853,14.0487805 92.9131686,15.4474146 92.9131686,17.1707317 C92.9131686,18.8940488 91.5176853,20.2926829 89.7982504,20.2926829 Z M99.1430051,20.2926829 C97.4235702,20.2926829 96.0280869,18.8940488 96.0280869,17.1707317 C96.0280869,15.4474146 97.4235702,14.0487805 99.1430051,14.0487805 C100.86244,14.0487805 102.257923,15.4474146 102.257923,17.1707317 C102.257923,18.8940488 100.86244,20.2926829 99.1430051,20.2926829 Z M108.48776,20.2926829 C106.768325,20.2926829 105.372842,18.8940488 105.372842,17.1707317 C105.372842,15.4474146 106.768325,14.0487805 108.48776,14.0487805 C110.207195,14.0487805 111.602678,15.4474146 111.602678,17.1707317 C111.602678,18.8940488 110.207195,20.2926829 108.48776,20.2926829 Z" id="path-1"></path>
        <filter x="-0.8%" y="-0.8%" width="101.6%" height="101.6%" filterUnits="objectBoundingBox" id="filter-2">
            <feOffset dx="2" dy="0" in="SourceAlpha" result="shadowOffsetInner1"></feOffset>
            <feComposite in="shadowOffsetInner1" in2="SourceAlpha" operator="arithmetic" k2="-1" k3="1" result="shadowInnerInner1"></feComposite>
            <feColorMatrix values="0 0 0 0 1   0 0 0 0 0.152941176   0 0 0 0 0.321568627  0 0 0 0.5 0" type="matrix" in="shadowInnerInner1"></feColorMatrix>
        </filter>
    </defs>
    <g id="Desktop" stroke="none" stroke-width="1" fill="none" fill-rule="evenodd">
        <g id="Elixir" transform="translate(-196.000000, -2560.000000)">
            <rect fill="#FFFFFF" x="0" y="0" width="1280" height="4865"></rect>
            <g id="Community" transform="translate(0.000000, 2160.000000)">
                <g id="Group" transform="translate(0.000000, 192.000000)">
                    <g id="bg">
                        <g id="icon" transform="translate(80.000000, 96.000000)">
                            <g id="img">
                                <g id="icn" transform="translate(113.000000, 112.000000)">
                                    <g id="Combined-Shape">
                                        <use fill="#000000" fill-rule="evenodd" xlink:href="#path-1"></use>
                                        <use fill="black" fill-opacity="1" filter="url(#filter-2)" xlink:href="#path-1"></use>
                                    </g>
                                </g>
                            </g>
                        </g>
                    </g>
                </g>
            </g>
        </g>
    </g>
</svg>
